visa.svg

<svg viewBox="0 0 24 24" xmlns="http://www.w3.org/2000/svg"><path d="M15.6321 8.11191C13.928 8.11191 12.4051 8.99517 12.4051 10.6271C12.4051 12.4985 15.106 12.6278 15.106 13.568C15.106 13.9639 14.6523 14.3182 13.8775 14.3182C12.7778 14.3182 11.9559 13.8231 11.9559 13.8231L11.6043 15.4698C11.6043 15.4698 12.551 15.8881 13.8081 15.8881C15.6712 15.8881 17.1372 14.9615 17.1372 13.3017C17.1372 11.3241 14.4251 11.1987 14.4251 10.326C14.4251 10.0159 14.7976 9.67615 15.5702 9.67615C16.4419 9.67615 17.1532 10.0363 17.1532 10.0363L17.4973 8.44576C17.4973 8.44576 16.7235 8.11191 15.6321 8.11191ZM0.0412629 8.23195L5.68434e-14 8.47202C5.68434e-14 8.47202 0.716915 8.60323 1.36261 8.86496C2.194 9.16508 2.25323 9.3398 2.39325 9.88246L3.91904 15.7643L5.96436 15.7643L9.11535 8.23195L7.07471 8.23195L5.05002 13.3532L4.22382 9.01219C4.14805 8.51536 3.76425 8.23195 3.29447 8.23195L0.0412629 8.23195ZM9.93592 8.23195L8.3351 15.7643L10.281 15.7643L11.8762 8.23195L9.93592 8.23195ZM20.789 8.23195C20.3198 8.23195 20.0711 8.48317 19.8887 8.92216L17.0378 15.7643L19.0785 15.7643L19.4733 14.6239L21.9594 14.6239L22.1994 15.7643L24 15.7643L22.4292 8.23195L20.789 8.23195ZM21.0544 10.267L21.6593 13.0935L20.0388 13.0935L21.0544 10.267Z" fill="#1434cb"/></svg>

<svg viewBox="0 0 24 24" xmlns="http://www.w3.org/2000/svg"><path d="M15.632 8.112c-1.704 0-3.227.883-3.227 2.515 0 1.871 2.701 2 2.701 2.941 0 .396-.454.75-1.229.75-1.1 0-1.921-.495-1.921-.495l-.352 1.647s.947.418 2.204.418c1.863 0 3.33-.927 3.33-2.586 0-1.978-2.713-2.103-2.713-2.976 0-.31.373-.65 1.145-.65.872 0 1.583.36 1.583.36l.344-1.59s-.773-.334-1.865-.334Zm-15.59.12L0 8.472s.717.131 1.363.393c.831.3.89.475 1.03 1.017l1.526 5.882h2.045l3.151-7.532h-2.04L5.05 13.353l-.826-4.34c-.076-.498-.46-.781-.93-.781H.041Zm9.894 0-1.6 7.532h1.945l1.595-7.532h-1.94Zm10.853 0c-.47 0-.718.251-.9.69l-2.851 6.842h2.04l.395-1.14h2.486l.24 1.14H24l-1.57-7.532h-1.641Zm.265 2.035.605 2.827h-1.62l1.015-2.827Z" fill="#1434cb"/></svg>
